packages/astro-components-stencil/src/icons/explore-off.svg

<svg width="24" height="24" viewBox="0 0 24 24" fill="none" xmlns="http://www.w3.org/2000/svg">
<path fill-rule="evenodd" clip-rule="evenodd" d="M18 6L15.09 12.26L20.34 17.51C21.39 15.93 22 14.04 22 12C22 6.48 17.52 2 12 2C9.95999 2 8.06999 2.61 6.48999 3.66L11.74 8.91L18 6ZM2.80999 5.64L3.65999 6.49C2.28999 8.56 1.65999 11.17 2.17999 13.94C2.92999 17.89 6.09999 21.07 10.06 21.82C12.83 22.34 15.44 21.72 17.51 20.34L18.36 21.19C18.75 21.58 19.38 21.58 19.77 21.19C20.16 20.8 20.16 20.17 19.77 19.78L4.21999 4.22C3.82999 3.83 3.19999 3.83 2.80999 4.22C2.41999 4.61 2.41999 5.25 2.80999 5.64ZM12.26 15.09L8.90999 11.74L5.99999 18L12.26 15.09Z" fill="black"/>
</svg>

<svg xmlns="http://www.w3.org/2000/svg" viewBox="0 0 24 24"><g xmlns="http://www.w3.org/2000/svg" id="explore-off" fill-rule="nonzero">
            <path d="M18 6l-2.91 6.26 5.25 5.25A9.91 9.91 0 0022 12c0-5.52-4.48-10-10-10-2.04 0-3.93.61-5.51 1.66l5.25 5.25L18 6zM2.81 5.64l.85.85c-1.37 2.07-2 4.68-1.48 7.45.75 3.95 3.92 7.13 7.88 7.88 2.77.52 5.38-.1 7.45-1.48l.85.85a.996.996 0 101.41-1.41L4.22 4.22a.996.996 0 00-1.41 0c-.39.39-.39 1.03 0 1.42zm6.1 6.1l3.35 3.35L6 18l2.91-6.26z"/>
        </g></svg>
